X:36
T:Bonny Lad. FTB.036
T:Because He Was a Bonny Lad. FTB.036
M:4/4
L:1/8
Q:160
B:Fiddler's Tune Book 1, pub.EFDSS.1952
R:.Reel
O:England
Z:Chris Partington <www.cpartington.plus.com>
K:G
c|BGGf egdB|cedBA2(Ac)|BGGf egdB|cedBG2-G:|
c|BcdB ecdB|cedBA2(Ac)|BcdB ecdB|cedBG2(Gc)|
BcdB ecdB|cedcA2(Ac)|bgaf gedB|cedBG2-G|]

